svgs/light/pen-nib.svg

<svg xmlns="http://www.w3.org/2000/svg" viewBox="0 0 512 512"><!--! Font Awesome Pro 6.3.0 by @fontawesome - https://fontawesome.com License - https://fontawesome.com/license (Commercial License) Copyright 2023 Fonticons, Inc. --><path d="M279.7 97.68L354.7 22.63C379.7-2.366 420.3-2.366 445.3 22.63L489.4 66.75C514.4 91.74 514.4 132.3 489.4 157.3L414.3 232.3L376.8 369.1C369.5 396.6 349 417.6 322.6 425.5L47.43 508.1C35.12 511.8 21.78 508.4 12.69 499.3C3.597 490.2 .232 476.9 3.925 464.6L86.47 189.4C94.4 162.1 115.4 142.5 142 135.2L279.7 97.68zM310.6 112L400 201.4L466.7 134.6C479.2 122.1 479.2 101.9 466.7 89.37L422.6 45.26C410.1 32.76 389.9 32.76 377.4 45.26L310.6 112zM283.3 129.9L150.5 166.1C134.5 170.5 121.9 182.7 117.1 198.6L42.7 446.7L152.9 336.5C147.2 326.1 144 315.9 144 304C144 268.7 172.7 240 208 240C243.3 240 272 268.7 272 304C272 339.3 243.3 368 208 368C196.1 368 185 364.8 175.5 359.1L65.33 469.3L313.4 394.9C329.3 390.1 341.5 377.5 345.9 361.5L382.1 228.7L283.3 129.9zM208 272C190.3 272 176 286.3 176 304C176 321.7 190.3 336 208 336C225.7 336 240 321.7 240 304C240 286.3 225.7 272 208 272z"/></svg>

<svg xmlns="http://www.w3.org/2000/svg" viewBox="0 0 512 512"><!--! Font Awesome Pro 6.4.0 by @fontawesome - https://fontawesome.com License - https://fontawesome.com/license (Commercial License) Copyright 2023 Fonticons, Inc. --><path d="M377.4 45.3L310.6 112 400 201.4l66.7-66.7c12.5-12.5 12.5-32.8 0-45.3L422.6 45.3c-12.5-12.5-32.8-12.5-45.3 0zM279.7 97.7l75.1-75.1c25-25 65.5-25 90.5 0l44.1 44.1c25 25 25 65.5 0 90.5l-75.1 75.1L376.8 370c-7.3 26.6-27.7 47.6-54.2 55.6L47.4 508.1c-12.3 3.7-25.7 .3-34.7-8.8s-12.5-22.4-8.8-34.7L86.5 189.4c7.9-26.4 28.9-46.9 55.6-54.2L279.7 97.7zm3.6 32.2L150.5 166.1c-16 4.4-28.6 16.6-33.3 32.5L42.7 446.7 152.9 336.5c-5.6-9.5-8.9-20.6-8.9-32.5c0-35.3 28.7-64 64-64s64 28.7 64 64s-28.7 64-64 64c-11.9 0-23-3.2-32.5-8.9L65.3 469.3l248.1-74.4c15.9-4.8 28.2-17.4 32.5-33.3l36.2-132.8-98.9-98.9zM208 272a32 32 0 1 0 0 64 32 32 0 1 0 0-64z"/></svg>
